X:34
T:La Soufflette
C:Bordois
O:France
A:Centre
R:Valse
S:80 airs  danser du centre France - La Chavanne - 1991
Z:Transcrit et/ou corrig par Michel BELLON - 2005-05-15
Z:Pour toute observation mailto:galouvielle@free.fr
M:3/4
L:1/4
K:G
GBc | d3 | G=fe | d3 | BdB | c2A | c/B/ A>c | B>AB | 
GBc | d3 | G=fe | d3 | BdB | c>dc | BAB | G3 |:
gfg | d3 | BdB | c2A | c/B/ Ac | B>AG | gfg | d3 | BdB | c>dc | BAB | G3 :|
%%footer $D   Galouvielle-MBe 2005 \nValse France
